src/lib/packages/icons/src/assets/filled/volume.svg

<svg width="24" height="24" viewBox="0 0 24 24" fill="none" xmlns="http://www.w3.org/2000/svg">
<path d="M7.5 6.99989H9.26697C9.74097 6.99989 10.1991 6.83177 10.5601 6.52577L14.251 3.39882C15.336 2.47982 17.001 3.25099 17.001 4.67299V19.3268C17.001 20.7488 15.336 21.521 14.251 20.601L10.5601 17.474C10.1991 17.168 9.74097 16.9999 9.26697 16.9999H7.5C6.672 16.9999 6 16.3279 6 15.4999V8.50087C6 7.67187 6.672 6.99989 7.5 6.99989Z" fill="currentColor"/>
</svg>

<svg xmlns="http://www.w3.org/2000/svg" width="24" height="24" fill="none"><path fill="currentColor" d="M7.5 7h1.767a2 2 0 0 0 1.293-.474l3.691-3.127c1.085-.92 2.75-.148 2.75 1.274v14.654c0 1.422-1.665 2.194-2.75 1.274l-3.69-3.127A2 2 0 0 0 9.266 17H7.5A1.5 1.5 0 0 1 6 15.5v-7A1.5 1.5 0 0 1 7.5 7Z"/></svg>
